!!! OTL: Berkowitz279
!!! Chapter: 1
!!! Section: II
!!! Page: 66
!!! Mode: 
!!! Encoder: DJB
**kern
*staff1
*I"Piano
=1-
*clefC3
*k[b-]
*g:
*M6/8
8.G/L
16A/K
8B-/J
4c\
8d\
=2
8.B-/L
16A/K
8G/J
4.B-/
=3
8.d\L
16e\K
8f\J
4g\
16f\LL
16e\JJ
=4
4d\
8B-/
4.d\
=5
8.c\L
16d\K
8e\J
4d\
8g\
=6
16c/LL
16d/
16c/
16B-/
16c/
16A/JJ
4B-/
8d\
=7
8.c\L
16d\K
8e\J
8d\L
8g\
8B-\J
=8
!!linebreak:original
8.A/L
16G/K
8F/J
4G/
8d\
=9
4g\
8f\
8.e\L
16d\K
8c\J
=10
8g\L
8b-\
8g\J
8.e\L
16d\K
8c\J
=11
8d\L
8e\
8f\J
8.d\L
16e\K
8d\J
=12
8c/L
8B-/
8A/J
4.G/
==
*-
